X:1
T:Bröllopspolska från Arnäs
R:Polska
N:Från filmen (?)
C:Marcos Ciscar
Z:Håkan Lidén, 2015-10-08
M:3/4
L:1/8
K:G
B2 B>G c>A | d2 d>c (3BAG | E2 E>G F>D | (3GAB A4 | B2 B>G c>A | 
d2 d>c (3BAG | E2 E>G F>A | A/B/A/G/ G4 :: g2 g2>>g2 | f>e d2>>d2 | e2 e2 {c}d2 | 
B4 (3GAB | c2 c2>>d2 | B>A G4 |1 !trill!G>F G2 (3GAB | A6 :|2 E>G G>B (3AGF | G6  |]

